X:39
T:Schottis efter Anders Fredrik Andersson
R:schottis
H:Tryserum
A:Sm{\aa}land
Z:id:hn-schottis-39
M:C|
K:D
A>BAG FAdc | BcBA G2ed | c2c>B A>ABc | dcde fafd |
A>BAG FAdc | BcBA G2ed | c2c>B A>ABc | d2f2 d2A2 :|
|: f2f2 d2ef | g2g2 e3d | cdcB A>ABc | dcde fafd |
fgfe d2ef | g2b2 e3d | cdcB A>ABc | d2f2 d2A2 :|

